assets/svg/thumb-circle-o.svg

<?xml version="1.0" encoding="UTF-8"?>
<svg width="1000px" height="1000px" viewBox="0 0 1000 1000" version="1.1" xmlns="http://www.w3.org/2000/svg" xmlns:xlink="http://www.w3.org/1999/xlink">
    <!-- Generator: sketchtool 52.4 (67378) - http://www.bohemiancoding.com/sketch -->
    <title>thumb-circle-o</title>
    <desc>Created with sketchtool.</desc>
    <g id="新版图标" stroke="none" stroke-width="1" fill="none" fill-rule="evenodd">
        <g id="thumb-circle-o" fill="#323233" fill-rule="nonzero">
            <g id="圆角-首页2">
                <path d="M416.666667,672.802319 L631.00989,638.033003 C636.895841,637.078018 641.493655,631.070625 641.532835,628.378446 C641.185298,626.987249 641.185298,626.987249 640.698546,624.112111 C639.889154,618.541725 639.835986,612.198437 640.965864,605.317772 C641.559432,601.695486 642.591863,598.438225 644.056929,595.050456 C644.840896,593.237638 647.227598,588.380587 647.366166,588.081404 C649.063039,584.417659 649.916691,581.339222 650.280188,576.240023 C650.513163,572.974134 650.373187,571.670208 649.529287,567.694652 C647.797015,559.53526 647.273728,554.239092 648.018576,545.594657 C648.676561,537.958332 650.13974,532.576395 652.938852,525.466792 C653.478827,524.104488 653.478827,524.104488 653.947465,522.919321 C655.802213,518.190162 656.570366,515.180124 657.024828,509.520593 C657.450424,504.158079 657.060683,501.254634 655.57338,495.895958 C655.047966,494.027354 655.047966,494.027354 654.431348,491.737872 C652.657769,484.922562 652.004241,479.059945 652.750574,471.98906 C653.208493,467.600167 653.810274,463.471205 654.524719,459.616827 C655.609063,453.766877 656.760706,449.430167 657.145884,448.55833 C659.138591,440.284979 656.538579,437.384388 647.932229,438.409911 L573.004359,447.322658 C548.577513,450.207719 528.981927,431.262768 530.841814,406.666841 L537.145397,324.380982 C538.405878,307.928386 528.738021,297.793597 513.164101,298.713145 C510.999837,299.70822 508.33613,302.638342 508.126879,304.111528 C507.476153,310.5238 506.083665,321.472322 503.823207,335.472742 C500.055679,358.807379 495.163897,382.164253 488.98761,404.112168 C472.506346,462.679614 450.427561,501.789832 416.666667,512.808999 L416.666667,672.802319 Z M375,679.561205 L375,521.478281 C362.882141,523.782 350.887297,526.030368 342.269048,527.633878 L342.269048,684.8706 L375,679.561205 Z M500,888.888889 C714.777403,888.888889 888.888889,714.777403 888.888889,500 C888.888889,285.222597 714.777403,111.111111 500,111.111111 C285.222597,111.111111 111.111111,285.222597 111.111111,500 C111.111111,714.777403 285.222597,888.888889 500,888.888889 Z M500,944.444444 C254.540111,944.444444 55.5555556,745.459889 55.5555556,500 C55.5555556,254.540111 254.540111,55.5555556 500,55.5555556 C745.459889,55.5555556 944.444444,254.540111 944.444444,500 C944.444444,745.459889 745.459889,944.444444 500,944.444444 Z M448.878791,392.825283 C454.578285,372.57169 459.156363,350.712663 462.689235,328.831397 C464.809016,315.702276 466.100228,305.550044 466.754557,299.216456 C469.32937,280.17482 484.650523,263.105326 503.282053,258.164302 C504.134696,257.784669 505.020912,257.661751 505.903054,257.554448 C506.521265,257.430588 507.142542,257.320182 507.766556,257.223586 C549.747902,253.271966 581.977918,284.652021 578.690328,327.563715 L572.727973,405.395132 L643.006391,397.035435 C680.337994,392.587043 706.464888,421.734387 697.131262,460.122892 C696.843854,460.971046 696.202338,463.386785 695.493524,467.210785 C694.977162,469.996515 694.534225,473.035613 694.189677,476.337763 C694.02937,477.856565 694.146259,478.90514 694.754981,481.244271 C695.158547,482.742476 695.158547,482.742476 695.722313,484.752605 C698.409114,494.433014 699.421421,501.974362 698.559348,512.836373 C697.747116,522.951499 695.988029,529.844549 692.737528,538.132545 C692.180602,539.541306 692.180602,539.541306 691.708919,540.730902 C690.260462,544.409908 689.79382,546.126332 689.531424,549.171613 C689.192413,553.10605 689.336056,554.55986 690.254437,558.885641 C691.871728,566.504563 692.397704,571.40422 691.841315,579.203769 C691.099095,589.615761 688.898166,597.552746 685.174553,605.592458 C684.651417,606.721968 682.600945,610.894773 682.300624,611.589225 C681.688603,614.464341 681.706214,616.565431 681.932206,618.120749 C682.000961,618.50097 682.000961,618.50097 682.432766,621.203316 C684.967216,648.964391 665.282589,674.683851 637.682269,679.161952 L344.965203,726.644546 C321.234314,730.490719 300.602381,712.944169 300.602381,688.811706 L300.602381,525.615278 C300.602381,507.112371 314.528339,490.410324 332.738014,487.025192 C341.67241,485.365568 355.088977,482.853038 368.495599,480.301775 L369.838465,480.046073 C386.707654,476.831948 398.511847,474.505176 402.035161,473.675957 C418.112856,469.886089 435.584497,440.067588 448.878791,392.825283 Z" id="Combined-Shape"></path>
            </g>
        </g>
    </g>
</svg>

<svg width="1000" height="1000" xmlns="http://www.w3.org/2000/svg"><path d="M416.667 672.802l214.343-34.769c5.886-.955 10.484-6.962 10.523-9.655-.348-1.39-.348-1.39-.834-4.266-.81-5.57-.863-11.914.267-18.794.593-3.623 1.626-6.88 3.09-10.268.785-1.812 3.172-6.67 3.31-6.969 1.697-3.663 2.55-6.742 2.914-11.841.233-3.266.093-4.57-.75-8.545-1.733-8.16-2.256-13.456-1.511-22.1.658-7.637 2.12-13.019 4.92-20.128l1.008-2.548c1.855-4.729 2.623-7.739 3.078-13.398.425-5.363.036-8.266-1.452-13.625-.525-1.869-.525-1.869-1.142-4.158-1.773-6.815-2.427-12.678-1.68-19.749.457-4.389 1.06-8.518 1.774-12.372 1.084-5.85 2.236-10.187 2.62-11.059 1.994-8.273-.606-11.174-9.213-10.148l-74.928 8.913c-24.426 2.885-44.022-16.06-42.162-40.656l6.303-82.286c1.26-16.453-8.407-26.587-23.98-25.668-2.165.995-4.829 3.925-5.038 5.399-.65 6.412-2.043 17.36-4.304 31.36-3.767 23.335-8.66 46.692-14.835 68.64-16.482 58.568-38.56 97.678-72.321 108.697v159.993zM375 679.562V521.477a8889.245 8889.245 0 0 1-32.731 6.156V684.87L375 679.56zm125 209.327c214.777 0 388.889-174.112 388.889-388.889 0-214.777-174.112-388.889-388.889-388.889-214.777 0-388.889 174.112-388.889 388.889 0 214.777 174.112 388.889 388.889 388.889zm0 55.555C254.54 944.444 55.556 745.46 55.556 500S254.54 55.556 500 55.556 944.444 254.54 944.444 500 745.46 944.444 500 944.444zm-51.121-551.619c5.7-20.253 10.277-42.112 13.81-63.994 2.12-13.129 3.411-23.281 4.066-29.615 2.574-19.041 17.896-36.11 36.527-41.052.853-.38 1.739-.502 2.621-.61.618-.123 1.24-.234 1.864-.33 41.98-3.952 74.21 27.428 70.923 70.34l-5.962 77.831 70.278-8.36c37.332-4.448 63.459 24.7 54.125 63.088-.287.848-.929 3.264-1.637 7.088-.517 2.786-.96 5.825-1.304 9.127-.16 1.519-.044 2.567.565 4.906.404 1.498.404 1.498.967 3.509 2.687 9.68 3.7 17.221 2.837 28.083-.812 10.115-2.571 17.009-5.821 25.297-.557 1.408-.557 1.408-1.03 2.598-1.448 3.679-1.914 5.395-2.177 8.44-.339 3.935-.195 5.389.723 9.715 1.618 7.619 2.144 12.518 1.587 20.318-.742 10.412-2.943 18.349-6.666 26.388-.524 1.13-2.574 5.303-2.874 5.997-.612 2.875-.595 4.976-.369 6.532.069.38.069.38.5 3.082 2.535 27.761-17.15 53.48-44.75 57.959l-292.717 47.483c-23.73 3.846-44.363-13.7-44.363-37.833V525.615c0-18.503 13.926-35.205 32.136-38.59a8771.5 8771.5 0 0 0 35.758-6.723l1.342-.256c16.87-3.214 28.674-5.54 32.197-6.37 16.078-3.79 33.55-33.608 46.844-80.85z" fill="#323233" fill-rule="nonzero"/></svg>
